Catalina-dark/places/16/folder-documents-symbolic.svg

<?xml version="1.0" encoding="UTF-8" standalone="no"?>
<!-- Created with Inkscape (http://www.inkscape.org/) -->

<svg
   xmlns:dc="http://purl.org/dc/elements/1.1/"
   xmlns:cc="http://creativecommons.org/ns#"
   xmlns:rdf="http://www.w3.org/1999/02/22-rdf-syntax-ns#"
   xmlns:svg="http://www.w3.org/2000/svg"
   xmlns="http://www.w3.org/2000/svg"
   xmlns:sodipodi="http://sodipodi.sourceforge.net/DTD/sodipodi-0.dtd"
   xmlns:inkscape="http://www.inkscape.org/namespaces/inkscape"
   id="svg7384"
   sodipodi:docname="folder-documents-symbolic.svg"
   version="1.1"
   inkscape:version="0.92.4 5da689c313, 2019-01-14"
   height="36"
   width="36">
  <metadata
     id="metadata90">
    <rdf:RDF>
      <cc:Work
         rdf:about="">
        <dc:format>image/svg+xml</dc:format>
        <dc:type
           rdf:resource="http://purl.org/dc/dcmitype/StillImage" />
        <dc:title>Gnome Symbolic Icon Theme</dc:title>
      </cc:Work>
    </rdf:RDF>
  </metadata>
  <sodipodi:namedview
     inkscape:cy="13.904038"
     pagecolor="#ffffff"
     borderopacity="1"
     showborder="true"
     inkscape:bbox-paths="false"
     guidetolerance="10"
     inkscape:window-width="1920"
     showguides="true"
     inkscape:object-nodes="true"
     inkscape:snap-bbox="true"
     inkscape:pageshadow="2"
     inkscape:guide-bbox="true"
     inkscape:snap-nodes="true"
     bordercolor="#666666"
     objecttolerance="10"
     id="namedview88"
     showgrid="false"
     inkscape:window-maximized="1"
     inkscape:window-x="0"
     inkscape:snap-global="true"
     inkscape:window-y="26"
     gridtolerance="10"
     inkscape:window-height="1031"
     inkscape:snap-to-guides="true"
     inkscape:current-layer="layer13"
     inkscape:zoom="5.656854"
     inkscape:cx="-47.1924"
     inkscape:snap-grids="true"
     inkscape:pageopacity="1">
    <inkscape:grid
       spacingx="1"
       spacingy="1"
       id="grid4866"
       empspacing="2"
       enabled="true"
       type="xygrid"
       snapvisiblegridlinesonly="true"
       visible="true"
       originx="0"
       originy="0" />
  </sodipodi:namedview>
  <title
     id="title9167">Gnome Symbolic Icon Theme</title>
  <defs
     id="defs7386" />
  <g
     inkscape:label="status"
     transform="translate(-442,-156)"
     inkscape:groupmode="layer"
     id="layer9"
     style="display:inline" />
  <g
     inkscape:label="devices"
     transform="translate(-442,-156)"
     inkscape:groupmode="layer"
     id="layer10" />
  <g
     inkscape:label="apps"
     transform="translate(-442,-156)"
     inkscape:groupmode="layer"
     id="layer11" />
  <g
     inkscape:label="actions"
     transform="translate(-442,-156)"
     inkscape:groupmode="layer"
     id="layer12" />
  <g
     inkscape:label="places"
     transform="translate(-442,-156)"
     inkscape:groupmode="layer"
     id="layer13">
    <path
       inkscape:connector-curvature="0"
       style="opacity:1;fill:#edf4f7;fill-opacity:0.85931557;stroke:none"
       d="m 444,163 0,6 0,22 12,0 10,0 0,-16 0,-1.79883 L 455.79883,163 454,163 l -10,0 z m 2,2 5.9375,0 c 1.18519,0 2.0625,1.04156 2.0625,2.375 l 0,7.625 8.03516,0 c 0.9857,0 1.96484,1.2186 1.96484,2.11914 L 464,189 l -8,0 -10,0 0,-19.79883 L 446,165 Z m 10,1.20117 L 462.79883,173 456,173 l 0,-6.79883 z"
       id="rect4156" />
    <path
       style="opacity:1;fill:#edf4f7;fill-opacity:0.85931557;stroke:none"
       d="m 454,157 0,6 1.79883,0 L 456,163.20117 456,159 l 5.9375,0 c 1.18519,0 2.0625,1.04156 2.0625,2.375 l 0,7.625 8.03437,0 c 0.9857,0 1.96563,1.21771 1.96563,2.11825 L 474,183 l -8,0 0,2 10,0 0,-16 0,-1.79883 L 465.79883,157 464,157 Z m 12,3.20117 L 472.79883,167 466,167 Z"
       id="path4181"
       inkscape:connector-curvature="0"
       sodipodi:nodetypes="ccccccccccccccccccccccc" />
    <path
       inkscape:connector-curvature="0"
       style="opacity:1;fill:#e8f1f5;fill-opacity:0.58935362;fill-rule:evenodd;stroke:none;stroke-width:1px;stroke-linecap:butt;stroke-linejoin:miter;stroke-opacity:1"
       d="m 446,165 0,24 18,0 0,-14 -10,0 0,-10 -8,0 z"
       id="path4186" />
    <path
       inkscape:connector-curvature="0"
       style="opacity:1;fill:#e8f1f5;fill-opacity:0.56653994;fill-rule:evenodd;stroke:none;stroke-width:1px;stroke-linecap:butt;stroke-linejoin:miter;stroke-opacity:1"
       d="m 456,159 0,4.20117 10,10 0,1.79883 0,8 8,0 0,-11.88086 C 474,170.21859 473.02085,169 472.03516,169 L 464,169 l 0,-7.625 C 464,160.04156 463.12269,159 461.9375,159 L 456,159 Z"
       id="path4191" />
  </g>
  <g
     inkscape:label="mimetypes"
     transform="translate(-442,-156)"
     inkscape:groupmode="layer"
     id="layer14" />
  <g
     inkscape:label="emblems"
     transform="translate(-442,-156)"
     inkscape:groupmode="layer"
     id="layer15"
     style="display:inline" />
</svg>

<svg width="36" height="36" version="1.1" xmlns="http://www.w3.org/2000/svg">
<g transform="translate(-442,-156)">
<path d="m444 163v6 22h12 10v-16-1.7988l-10.201-10.201h-1.7988-10zm2 2h5.9375c1.1852 0 2.0625 1.0416 2.0625 2.375v7.625h8.0352c0.9857 0 1.9648 1.2186 1.9648 2.1191v11.881h-8-10v-19.799-4.2012zm10 1.2012 6.7988 6.7988h-6.7988v-6.7988z" fill="#edf4f7" fill-opacity=".85932"/>
<path d="m454 157v6h1.7988l0.20117 0.20117v-4.2012h5.9375c1.1852 0 2.0625 1.0416 2.0625 2.375v7.625h8.0344c0.9857 0 1.9656 1.2177 1.9656 2.1182v11.882h-8v2h10v-16-1.7988l-10.201-10.201h-1.7988zm12 3.2012 6.7988 6.7988h-6.7988z" fill="#edf4f7" fill-opacity=".85932"/>
<path d="m446 165v24h18v-14h-10v-10h-8z" fill="#e8f1f5" fill-opacity=".58935" fill-rule="evenodd"/>
<path d="m456 159v4.2012l10 10v1.7988 8h8v-11.881c0-0.90055-0.97915-2.1191-1.9648-2.1191h-8.0352v-7.625c0-1.3334-0.87731-2.375-2.0625-2.375h-5.9375z" fill="#e8f1f5" fill-opacity=".56654" fill-rule="evenodd"/>
</g>
</svg>
